UNB/img/gas-shop/applePay.svg

<svg width="74" height="53" viewBox="0 0 74 53" fill="none" xmlns="http://www.w3.org/2000/svg">
<rect width="72.9723" height="52.4143" transform="translate(0.355469)" fill="#F0F7FF"/>
<path fill-rule="evenodd" clip-rule="evenodd" d="M20.6364 18.2213C20.0239 18.9898 19.0439 19.5959 18.0639 19.5093C17.9414 18.4702 18.4211 17.3662 18.9826 16.6842C19.5951 15.8941 20.667 15.3312 21.5347 15.2879C21.6368 16.3703 21.2386 17.4311 20.6364 18.2213ZM21.5231 19.7152C20.6597 19.6625 19.8719 19.9905 19.2356 20.2554C18.8261 20.4259 18.4794 20.5703 18.2156 20.5703C17.9195 20.5703 17.5584 20.4182 17.153 20.2474C16.6218 20.0237 16.0145 19.7679 15.3777 19.7801C13.9179 19.8018 12.5602 20.6785 11.8149 22.0749C10.2837 24.8675 11.4168 29.0024 12.897 31.2754C13.6218 32.4012 14.4895 33.6351 15.6329 33.5918C16.1359 33.5717 16.4977 33.4089 16.8721 33.2404C17.3032 33.0464 17.7511 32.8449 18.4504 32.8449C19.1254 32.8449 19.5536 33.0412 19.9647 33.2296C20.3556 33.4087 20.731 33.5807 21.2883 33.5702C22.4724 33.5485 23.2176 32.4445 23.9424 31.3187C24.7246 30.1105 25.0683 28.9314 25.1205 28.7524L25.1266 28.7318C25.1253 28.7304 25.1157 28.7257 25.0987 28.7175L25.0986 28.7175C24.8372 28.5905 22.8387 27.6204 22.8195 25.0191C22.8003 22.8356 24.4047 21.7293 24.6572 21.5551C24.6726 21.5445 24.683 21.5374 24.6876 21.5337C23.6668 19.9317 22.0743 19.7585 21.5231 19.7152ZM29.7202 33.451V16.5761H35.6921C38.775 16.5761 40.9289 18.8275 40.9289 22.1181C40.9289 25.4086 38.7341 27.6817 35.6104 27.6817H32.1906V33.451H29.7202ZM32.1902 18.7843H35.0384C37.1821 18.7843 38.4071 19.9966 38.4071 22.129C38.4071 24.2613 37.1821 25.4845 35.0282 25.4845H32.1902V18.7843ZM49.0868 31.4267C48.4334 32.7473 46.9941 33.5807 45.4424 33.5807C43.1455 33.5807 41.5428 32.1303 41.5428 29.9438C41.5428 27.779 43.0945 26.5342 45.963 26.3502L49.0459 26.1553V25.2244C49.0459 23.8498 48.1986 23.1029 46.6878 23.1029C45.4424 23.1029 44.5338 23.7848 44.3501 24.8239H42.1247C42.1961 22.6375 44.1357 21.0463 46.7593 21.0463C49.587 21.0463 51.4245 22.6158 51.4245 25.0513V33.4508H49.1378V31.4267H49.0868ZM46.1038 31.5782C44.7869 31.5782 43.9499 30.9071 43.9499 29.8788C43.9499 28.818 44.7563 28.2011 46.2978 28.1037L49.0438 27.9196V28.8722C49.0438 30.4525 47.778 31.5782 46.1038 31.5782ZM59.0063 34.1115C58.0161 37.0665 56.8829 38.0407 54.4738 38.0407C54.29 38.0407 53.6775 38.019 53.5346 37.9757V35.9516C53.6877 35.9733 54.0654 35.9949 54.2594 35.9949C55.3517 35.9949 55.9642 35.5078 56.3419 34.2414L56.5665 33.4945L52.3811 21.2091H54.9638L57.8732 31.1781H57.9242L60.8336 21.2091H63.3448L59.0063 34.1115Z" fill="black"/>
</svg>

<svg width="74" height="53" fill="none" xmlns="http://www.w3.org/2000/svg"><path fill="#F0F7FF" d="M.355 0h72.972v52.414H.355z"/><path fill-rule="evenodd" clip-rule="evenodd" d="M20.636 18.221c-.612.769-1.592 1.375-2.572 1.288-.123-1.039.357-2.143.919-2.825.612-.79 1.684-1.353 2.552-1.396.102 1.082-.296 2.143-.899 2.933zm.887 1.494c-.863-.052-1.651.276-2.287.54-.41.17-.757.315-1.02.315-.297 0-.658-.152-1.063-.323-.531-.223-1.138-.48-1.775-.467-1.46.022-2.818.898-3.563 2.295-1.531 2.793-.398 6.927 1.082 9.2.725 1.126 1.592 2.36 2.736 2.317.503-.02.865-.183 1.24-.352.43-.194.878-.395 1.577-.395.675 0 1.104.196 1.515.385.39.179.766.35 1.323.34 1.184-.022 1.93-1.126 2.654-2.251a10.15 10.15 0 001.178-2.567l.007-.02a.246.246 0 00-.028-.014c-.262-.128-2.26-1.098-2.28-3.699-.019-2.183 1.586-3.29 1.838-3.464l.03-.021c-1.02-1.602-2.613-1.775-3.164-1.819zm8.197 13.736V16.576h5.972c3.083 0 5.237 2.252 5.237 5.542s-2.195 5.564-5.319 5.564h-3.42v5.769h-2.47zm2.47-14.667h2.848c2.144 0 3.37 1.213 3.37 3.345s-1.226 3.355-3.38 3.355H32.19v-6.7zm16.897 12.643c-.654 1.32-2.093 2.154-3.645 2.154-2.297 0-3.9-1.45-3.9-3.637 0-2.165 1.552-3.41 4.421-3.594l3.083-.195v-.93c0-1.375-.847-2.122-2.358-2.122-1.246 0-2.154.682-2.338 1.72h-2.225c.071-2.186 2.01-3.777 4.634-3.777 2.828 0 4.666 1.57 4.666 4.005v8.4h-2.287v-2.024h-.051zm-2.983.151c-1.317 0-2.154-.67-2.154-1.7 0-1.06.806-1.677 2.348-1.774l2.746-.184v.952c0 1.58-1.266 2.706-2.94 2.706zm12.902 2.534c-.99 2.954-2.123 3.929-4.532 3.929-.184 0-.796-.022-.94-.065v-2.024c.154.021.531.043.725.043 1.093 0 1.705-.487 2.083-1.754l.224-.746-4.185-12.286h2.583l2.91 9.97h.05l2.91-9.97h2.51l-4.338 12.902z" fill="#000"/></svg>
